Obsidian-SemiLight/actions/22s/transform-move-horizontal.svg

<svg viewBox="0 0 22 22" xmlns="http://www.w3.org/2000/svg"><path d="m7 9-4 2 4 2zm8 0v4l4-2zm-4 1c-.554 0-1 .446-1 1s.446 1 1 1 1-.446 1-1-.446-1-1-1z" fill="#4d4d4d"/></svg>

<svg xmlns="http://www.w3.org/2000/svg" viewBox="0 0 22 22">
  <defs id="defs3051">
    <style type="text/css" id="current-color-scheme">
      .ColorScheme-Text {
        color:#4d4d4d;
      }
      </style>
  </defs>
 <path 
    style="fill:currentColor;fill-opacity:1;stroke:none" 
    d="M 7 9 L 3 11 L 7 13 L 7 9 z M 15 9 L 15 13 L 19 11 L 15 9 z M 11 10 C 10.446 10 10 10.446 10 11 C 10 11.554 10.446 12 11 12 C 11.554 12 12 11.554 12 11 C 12 10.446 11.554 10 11 10 z "
	class="ColorScheme-Text"
    />  
</svg>
